;FLAVOR:Marlin
;TIME:3096
;Filament used: 0.627364m
;Layer height: 0.12
;MINX:93.341
;MINY:96.235
;MINZ:0.144
;MAXX:126.633
;MAXY:129.541
;MAXZ:7.584
;Generated with Cura_SteamEngine 4.4.1
M140 S50
M105
M190 S50
M104 S240
M105
M109 S240
M82 ;absolute extrusion mode
M201 X500.00 Y500.00 Z100.00 E5000.00 ;Setup machine max acceleration
M203 X500.00 Y500.00 Z10.00 E50.00 ;Setup machine max feedrate
M204 P500.00 R1000.00 T500.00 ;Setup Print/Retract/Travel acceleration
M205 X8.00 Y8.00 Z0.40 E5.00 ;Setup Jerk
M220 S100 ;Reset Feedrate
M221 S100 ;Reset Flowrate

G28 ;Home

G92 E0 ;Reset Extruder
G1 Z2.0 F3000 ;Move Z Axis up
G1 X10.1 Y20 Z0.28 F5000.0 ;Move to start position
G1 X10.1 Y200.0 Z0.28 F1500.0 E15 ;Draw the first line
G1 X10.4 Y200.0 Z0.28 F5000.0 ;Move to side a little
G1 X10.4 Y20 Z0.28 F1500.0 E30 ;Draw the second line
G92 E0 ;Reset Extruder
G1 Z2.0 F3000 ;Move Z Axis up

G92 E0
G92 E0
G1 F3000 E-2
;LAYER_COUNT:58
;LAYER:-6
M107
G0 F6000 X99.792 Y100.901 Z0.144
;TYPE:SUPPORT-INTERFACE
G1 F3000 E0
G1 F1125 X100.035 Y100.662 E0.00816
G1 X100.207 Y100.509 E0.01367
G1 X100.399 Y100.354 E0.01958
G1 X100.983 Y99.924 E0.03695
G1 X101.324 Y99.702 E0.0467
G1 X101.58 Y99.557 E0.05374
G1 X101.867 Y99.418 E0.06138
G1 X102.131 Y99.311 E0.0682
G1 X102.218 Y99.282 E0.0704
G1 X102.822 Y99.035 E0.08602
G1 X103.434 Y98.685 E0.10291
G1 X103.729 Y98.488 E0.1114
G1 X104.004 Y98.329 E0.11901
G1 X104.304 Y98.18 E0.12703
G1 X104.508 Y98.09 E0.13237
G1 X104.762 Y97.994 E0.13887
G1 X105.443 Y97.768 E0.15605
G1 X105.825 Y97.666 E0.16552
G1 X106.119 Y97.607 E0.1727
G1 X106.425 Y97.565 E0.1801
G1 X106.711 Y97.544 E0.18697
G1 X106.799 Y97.543 E0.18907
G1 X107.449 Y97.497 E0.20468
G1 X108.152 Y97.35 E0.22188
G1 X108.518 Y97.248 E0.23098
G1 X108.775 Y97.192 E0.23728
G1 X109.152 Y97.136 E0.2464
G1 X109.339 Y97.118 E0.2509
G1 X109.588 Y97.105 E0.25687
G1 X110.319 Y97.099 E0.27438
G1 X110.729 Y97.12 E0.28421
G1 X111.027 Y97.155 E0.2914
G1 X111.317 Y97.206 E0.29845
G1 X111.612 Y97.278 E0.30572
G1 X111.713 Y97.31 E0.30826
G1 X112.346 Y97.464 E0.32386
G1 X113.055 Y97.541 E0.34093
G1 X113.386 Y97.554 E0.34887
G1 X113.713 Y97.587 E0.35674
G1 X114.027 Y97.639 E0.36436
G1 X114.265 Y97.691 E0.37019
G1 X114.534 Y97.766 E0.37688
G1 X115.199 Y97.977 E0.39359
G1 X115.563 Y98.116 E0.40292
G1 X115.836 Y98.24 E0.4101
G1 X116.114 Y98.389 E0.41765
G1 X116.361 Y98.542 E0.42461
G1 X116.445 Y98.602 E0.42708
G1 X116.999 Y98.945 E0.44269
G1 X117.641 Y99.234 E0.45955
G1 X117.995 Y99.366 E0.46859
G1 X118.253 Y99.48 E0.47535
G1 X118.554 Y99.636 E0.48347
G1 X118.764 Y99.76 E0.48931
G1 X118.965 Y99.892 E0.49507
G1 X119.428 Y100.218 E0.50863
G1 X119.558 Y100.318 E0.51255
G1 X119.864 Y100.563 E0.52194
G1 X120.062 Y100.745 E0.52838
G1 X120.292 Y100.984 E0.53632
G1 X120.483 Y101.208 E0.54337
G1 X120.544 Y101.29 E0.54582
G1 X120.965 Y101.788 E0.56144
G1 X121.506 Y102.276 E0.57889
G1 X121.746 Y102.463 E0.58617
G1 X121.981 Y102.673 E0.59372
G1 X122.233 Y102.927 E0.60229
G1 X122.372 Y103.084 E0.60731
G1 X122.551 Y103.308 E0.61418
G1 X122.967 Y103.873 E0.63098
G1 X123.189 Y104.214 E0.64072
G1 X123.334 Y104.47 E0.64777
G1 X123.476 Y104.764 E0.65559
G1 X123.578 Y105.016 E0.6621
G1 X123.604 Y105.094 E0.66406
G1 X123.849 Y105.698 E0.67967
G1 X124.205 Y106.323 E0.6969
G1 X124.409 Y106.628 E0.70569
G1 X124.562 Y106.894 E0.71303
G1 X124.707 Y107.184 E0.7208
G1 X124.805 Y107.408 E0.72665
G1 X124.888 Y107.626 E0.73224
G1 X125.123 Y108.334 E0.7501
G1 X125.224 Y108.713 E0.7595
G1 X125.283 Y109.004 E0.76661
G1 X125.326 Y109.318 E0.7742
G1 X125.347 Y109.602 E0.78102
G1 X125.348 Y109.691 E0.78315
G1 X125.394 Y110.342 E0.79878
G1 X125.546 Y111.061 E0.81638
G1 X125.632 Y111.364 E0.82392
G1 X125.701 Y111.685 E0.83178
G1 X125.749 Y112 E0.83941
G1 X125.774 Y112.25 E0.84543
G1 X125.787 Y112.525 E0.85202
G1 X125.792 Y113.204 E0.86828
G1 X125.772 Y113.615 E0.87813
G1 X125.736 Y113.918 E0.88544
G1 X125.685 Y114.208 E0.89249
G1 X125.613 Y114.503 E0.89977
G1 X125.581 Y114.604 E0.9023
G1 X125.427 Y115.237 E0.9179
G1 X125.35 Y115.946 E0.93498
G1 X125.337 Y116.277 E0.94291
G1 X125.304 Y116.604 E0.95078
G1 X125.253 Y116.915 E0.95833
G1 X125.2 Y117.156 E0.96424
G1 X125.125 Y117.425 E0.97093
G1 X124.914 Y118.09 E0.98764
G1 X124.778 Y118.448 E0.99681
G1 X124.651 Y118.727 E1.00415
G1 X124.503 Y119.003 E1.01165
G1 X124.349 Y119.251 E1.01864
G1 X124.282 Y119.347 E1.02144
G1 X123.941 Y119.901 E1.03702
G1 X123.655 Y120.538 E1.05374
G1 X123.533 Y120.868 E1.06217
G1 X123.412 Y121.142 E1.06934
G1 X123.267 Y121.422 E1.07689
G1 X123.132 Y121.652 E1.08328
G1 X122.991 Y121.866 E1.08941
G1 X122.673 Y122.319 E1.10267
G1 X122.573 Y122.449 E1.1066
G1 X122.329 Y122.754 E1.11595
G1 X122.146 Y122.953 E1.12242
G1 X121.91 Y123.18 E1.13027
G1 X121.683 Y123.375 E1.13743
G1 X121.585 Y123.448 E1.14036
G1 X121.087 Y123.87 E1.15599
G1 X120.626 Y124.381 E1.17247
G1 X120.409 Y124.655 E1.18084
G1 X120.208 Y124.88 E1.18807
G1 X119.965 Y125.119 E1.19623
G1 X119.793 Y125.273 E1.20176
G1 X119.597 Y125.43 E1.20777
G1 X119.01 Y125.863 E1.22524
G1 X118.686 Y126.075 E1.23451
G1 X118.431 Y126.219 E1.24152
G1 X118.133 Y126.363 E1.24945
G1 X117.869 Y126.471 E1.25628
G1 X117.774 Y126.504 E1.25869
G1 X117.171 Y126.75 E1.27428
G1 X116.552 Y127.105 E1.29137
G1 X116.271 Y127.294 E1.29948
G1 X115.989 Y127.458 E1.30729
G1 X115.704 Y127.6 E1.31492
G1 X115.479 Y127.698 E1.3208
G1 X115.227 Y127.792 E1.32724
G1 X114.557 Y128.014 E1.34414
G1 X114.175 Y128.116 E1.35361
G1 X113.881 Y128.175 E1.36079
G1 X113.575 Y128.217 E1.36819
G1 X113.289 Y128.238 E1.37505
G1 X113.198 Y128.239 E1.37723
G1 X112.547 Y128.285 E1.39286
G1 X111.842 Y128.433 E1.41011
G1 X111.505 Y128.529 E1.4185
G1 X111.213 Y128.591 E1.42565
G1 X110.849 Y128.645 E1.43446
G1 X110.661 Y128.663 E1.43899
G1 X110.412 Y128.676 E1.44496
G1 X109.681 Y128.682 E1.46246
G1 X109.271 Y128.661 E1.47229
G1 X108.973 Y128.626 E1.47948
G1 X108.686 Y128.576 E1.48646
G1 X108.373 Y128.499 E1.49418
G1 X108.294 Y128.474 E1.49616
G1 X107.662 Y128.319 E1.51174
G1 X106.946 Y128.241 E1.52899
G1 X106.617 Y128.229 E1.53687
G1 X106.288 Y128.195 E1.5448
G1 X105.973 Y128.143 E1.55244
G1 X105.735 Y128.091 E1.55827
G1 X105.463 Y128.015 E1.56504
G1 X104.802 Y127.805 E1.58165
G1 X104.437 Y127.666 E1.591
G1 X104.164 Y127.542 E1.59818
G1 X103.886 Y127.393 E1.60573
G1 X103.64 Y127.24 E1.61267
G1 X103.544 Y127.173 E1.61547
G1 X102.99 Y126.832 E1.63105
G1 X102.353 Y126.546 E1.64777
G1 X102.023 Y126.423 E1.65621
G1 X101.758 Y126.307 E1.66314
G1 X101.455 Y126.15 E1.67131
G1 X101.244 Y126.026 E1.67717
G1 X100.999 Y125.862 E1.68423
G1 X100.575 Y125.563 E1.69665
G1 X100.441 Y125.462 E1.70067
G1 X100.154 Y125.232 E1.70948
G1 X99.915 Y125.014 E1.71723
G1 X99.709 Y124.798 E1.72437
G1 X99.514 Y124.569 E1.73158
G1 X99.462 Y124.498 E1.73368
G1 X99.042 Y124 E1.74928
G1 X98.516 Y123.522 E1.76631
G1 X98.234 Y123.3 E1.7749
G1 X98.004 Y123.093 E1.78231
G1 X97.767 Y122.851 E1.79042
G1 X97.619 Y122.685 E1.79575
G1 X97.455 Y122.482 E1.802
G1 X97.03 Y121.904 E1.81918
G1 X96.811 Y121.567 E1.8288
G1 X96.665 Y121.308 E1.83592
G1 X96.527 Y121.024 E1.84348
G1 X96.42 Y120.76 E1.8503
G1 X96.391 Y120.673 E1.8525
G1 X96.144 Y120.069 E1.86813
G1 X95.788 Y119.447 E1.88529
G1 X95.6 Y119.167 E1.89337
G1 X95.433 Y118.88 E1.90132
G1 X95.291 Y118.594 E1.90897
G1 X95.193 Y118.37 E1.91482
G1 X95.097 Y118.113 E1.92139
G1 X94.875 Y117.441 E1.93834
G1 X94.775 Y117.066 E1.94763
G1 X94.715 Y116.766 E1.95496
G1 X94.674 Y116.464 E1.96226
G1 X94.653 Y116.18 E1.96908
G1 X94.652 Y116.092 E1.97118
G1 X94.606 Y115.442 E1.98679
G1 X94.459 Y114.739 E2.00399
G1 X94.357 Y114.373 E2.01309
G1 X94.301 Y114.116 E2.01939
G1 X94.245 Y113.739 E2.02851
G1 X94.227 Y113.551 E2.03304
G1 X94.214 Y113.299 E2.03908
G1 X94.208 Y112.571 E2.05651
G1 X94.228 Y112.166 E2.06622
G1 X94.264 Y111.861 E2.07358
G1 X94.315 Y111.573 E2.08058
G1 X94.387 Y111.278 E2.08785
G1 X94.419 Y111.177 E2.09039
G1 X94.573 Y110.544 E2.10599
G1 X94.65 Y109.834 E2.12309
G1 X94.661 Y109.515 E2.13074
G1 X94.696 Y109.179 E2.13883
G1 X94.75 Y108.855 E2.14669
G1 X94.8 Y108.626 E2.15231
G1 X94.875 Y108.357 E2.15899
G1 X95.086 Y107.692 E2.1757
G1 X95.222 Y107.334 E2.18487
G1 X95.351 Y107.05 E2.19234
G1 X95.498 Y106.777 E2.19977
G1 X95.646 Y106.538 E2.2065
G1 X95.713 Y106.443 E2.20928
G1 X96.055 Y105.889 E2.22487
G1 X96.342 Y105.25 E2.24165
G1 X96.468 Y104.911 E2.25031
G1 X96.592 Y104.631 E2.25764
G1 X96.743 Y104.34 E2.26549
G1 X96.856 Y104.148 E2.27083
G1 X97.006 Y103.92 E2.27736
G1 X97.328 Y103.463 E2.29075
G1 X97.427 Y103.332 E2.29468
G1 X97.672 Y103.026 E2.30407
G1 X97.854 Y102.828 E2.31051
G1 X98.093 Y102.598 E2.31846
G1 X98.317 Y102.406 E2.32552
G1 X98.415 Y102.333 E2.32845
G1 X98.913 Y101.911 E2.34408
G1 X99.374 Y101.4 E2.36056
G1 X99.591 Y101.126 E2.36893
G1 X99.792 Y100.901 E2.37615
G0 F6000 X100 Y100.696
G1 F1125 X100 Y125.091 E2.96035
G0 F6000 X100.8 Y125.721
G1 F1125 X100.8 Y100.058 E3.57491
G0 F6000 X101.6 Y99.547
G1 F1125 X101.6 Y126.225 E4.21377
G0 F6000 X102.4 Y126.567
G1 F1125 X102.4 Y99.207 E4.86897
G0 F6000 X103.2 Y98.818
G1 F1125 X103.2 Y126.961 E5.54292
G0 F6000 X104 Y127.454
G1 F1125 X104 Y98.331 E6.24034
G0 F6000 X104.8 Y97.981
G1 F1125 X104.8 Y127.804 E6.95452
G0 F6000 X105.6 Y128.053
G1 F1125 X105.6 Y97.726 E7.68077
G0 F6000 X106.4 Y97.568
G1 F1125 X106.4 Y128.206 E8.41447
G0 F6000 X107.2 Y128.268
G1 F1125 X107.2 Y97.514 E9.15094
G0 F6000 X108 Y97.381
G1 F1125 X108 Y128.401 E9.89379
G0 F6000 X108.8 Y128.595
G1 F1125 X108.8 Y97.188 E10.6459
G0 F6000 X109.6 Y97.104
G1 F1125 X109.6 Y128.677 E11.40199
G0 F6000 X110.4 Y128.677
G1 F1125 X110.4 Y97.104 E12.15807
G0 F6000 X111.2 Y97.186
G1 F1125 X111.2 Y128.593 E12.91019
G0 F6000 X112 Y128.4
G1 F1125 X112 Y97.38 E13.65303
G0 F6000 X112.8 Y97.514
G1 F1125 X112.8 Y128.268 E14.38951
G0 F6000 X113.6 Y128.214
G1 F1125 X113.6 Y97.576 E15.1232
G0 F6000 X114.4 Y97.729
G1 F1125 X114.4 Y128.056 E15.84945
G0 F6000 X115.2 Y127.801
G1 F1125 X115.2 Y97.978 E16.56363
G0 F6000 X116 Y98.328
G1 F1125 X116 Y127.452 E17.26108
G0 F6000 X116.8 Y126.963
G1 F1125 X116.8 Y98.822 E17.93498
G0 F6000 X117.6 Y99.216
G1 F1125 X117.6 Y126.575 E18.59015
G0 F6000 X118.4 Y126.234
G1 F1125 X118.4 Y99.557 E19.22899
G0 F6000 X119.2 Y100.058
G1 F1125 X119.2 Y125.723 E19.8436
G0 F6000 X120 Y125.085
G1 F1125 X120 Y100.689 E20.42782
G0 F6000 X120.8 Y101.593
G1 F1125 X120.8 Y124.189 E20.96893
G0 F6000 X121.6 Y123.437
G1 F1125 X121.6 Y102.35 E21.47391
G0 F6000 X122.4 Y103.12
G1 F1125 X122.4 Y122.666 E21.94198
G0 F6000 X123.2 Y121.537
G1 F1125 X123.2 Y104.234 E22.35634
G0 F6000 X124 Y105.964
G1 F1125 X124 Y119.806 E22.68782
G0 F6000 X124.8 Y118.391
G1 F1125 X124.8 Y107.397 E22.9511
G1 F3000 E20.9511
G0 F6000 X125.703 Y107.338
G0 X126.093 Y108.714
G0 X126.387 Y110.862
G0 X125.6 Y111.252
G1 F3000 E22.9511
G1 F1125 X125.6 Y114.545 E23.02996
G1 F3000 E21.02996
G0 F6000 X126.414 Y114.836
G0 X126.038 Y117.367
G0 X125.573 Y118.787
G0 X123.778 Y122.245
G0 X122.76 Y123.561
G0 X120.153 Y126.093
G0 X118.826 Y126.988
G0 X115.626 Y128.567
G0 X114.024 Y129.028
G0 X110.423 Y129.541
G0 X108.852 Y129.483
G0 X105.33 Y128.877
G0 X103.782 Y128.317
G0 X100.615 Y126.648
G0 X99.446 Y125.739
G0 X98.54 Y124.745
G0 X99.2 Y124.187
G1 F3000 E23.02996
G1 F1125 X99.2 Y101.592 E23.57104
G0 F6000 X98.4 Y102.344
G1 F1125 X98.4 Y123.43 E24.076
G0 F6000 X97.6 Y122.661
G1 F1125 X97.6 Y103.115 E24.54407
G0 F6000 X96.8 Y104.243
G1 F1125 X96.8 Y121.547 E24.95846
G0 F6000 X96 Y119.817
G1 F1125 X96 Y105.978 E25.28986
G0 F6000 X95.2 Y107.391
G1 F1125 X95.2 Y118.386 E25.55316
G1 F3000 E23.55316
G0 F6000 X94.283 Y118.403
G0 X93.905 Y117.064
G0 X93.62 Y114.947
G0 X94.4 Y114.527
G1 F3000 E25.55316
G1 F1125 X94.4 Y111.236 E25.63197
G1 F3000 E23.63197
G0 F300 X94.4 Y111.236 Z0.324
G0 F6000 X93.467 Y111.402
G0 X93.341 Y112.686
G0 X93.387 Y113.848
G0 X93.933 Y117.259
G0 X94.452 Y118.793
G0 X95.737 Y121.374
G0 X96.631 Y121.239
;TIME_ELAPSED:67.338718
;LAYER:-5
M140 S50
;TYPE:SUPPORT
G1 F3000 E25.63197
G1 F1125 X101.635 Y126.242 E25.84379
G1 X101.454 Y126.149 E25.84988
G1 X101.244 Y126.025 E25.85718
G1 X100.998 Y125.86 E25.86605
G1 X100.574 Y125.562 E25.88156
G1 X100.44 Y125.461 E25.88658
G1 X100.153 Y125.23 E25.89761
G1 X99.914 Y125.012 E25.90729
G1 X99.709 Y124.797 E25.91619
G1 X99.513 Y124.568 E25.92521
G1 X99.461 Y124.497 E25.92784
G1 X99.042 Y123.998 E25.94735
G1 X98.516 Y123.52 E25.96862
G1 X98.234 Y123.299 E25.97935
G1 X98.004 Y123.092 E25.98861
G1 X97.766 Y122.85 E25.99877
G1 X97.618 Y122.684 E26.00543
G1 X97.454 Y122.48 E26.01326
G1 X97.029 Y121.903 E26.03472
G1 X96.81 Y121.566 E26.04675
G1 X96.665 Y121.307 E26.05563
G1 F3000 E24.05563
G0 F6000 X96.074 Y122.02
G0 X97.139 Y123.445
G0 X99.587 Y125.885
G0 X101.042 Y126.91
G0 X101.635 Y126.242
G1 F3000 E26.05563
G1 F1125 X101.758 Y126.306 E26.05978
G1 X102.022 Y126.422 E26.06841
G1 X102.352 Y126.545 E26.07896
G1 X102.99 Y126.83 E26.09987
G1 X103.203 Y126.962 E26.10737
G1 X95.921 Y119.68 E26.41564
G1 X95.788 Y119.446 E26.4237
G1 X95.6 Y119.166 E26.4338
G1 X95.433 Y118.879 E26.44374
G1 X95.291 Y118.593 E26.4533
G1 X95.192 Y118.368 E26.46065
G1 X95.097 Y118.112 E26.46883
G1 X95.045 Y117.955 E26.47378
G1 X104.936 Y127.846 E26.8925
G1 X105.462 Y128.013 E26.90902
G1 X105.734 Y128.09 E26.91748
G1 X105.973 Y128.142 E26.9248
G1 X106.101 Y128.163 E26.92868
G1 X94.717 Y116.779 E27.4106
G1 X94.714 Y116.765 E27.41103
G1 X94.674 Y116.463 E27.42015
G1 X94.653 Y116.179 E27.42868
G1 X94.651 Y116.091 E27.43131
G1 X94.634 Y115.847 E27.43863
G1 X107.036 Y128.249 E27.96365
G1 X107.661 Y128.317 E27.98247
G1 X108.048 Y128.412 E27.9944
G1 X94.48 Y114.845 E28.56875
G1 X94.458 Y114.738 E28.57202
G1 X94.357 Y114.372 E28.58339
G1 X94.301 Y114.115 E28.59126
G1 X94.248 Y113.764 E28.60189
G1 X109.126 Y128.642 E29.23172
G1 X109.271 Y128.66 E29.2361
G1 X109.681 Y128.681 E29.24839
G1 X110.01 Y128.677 E29.25823
G1 X94.209 Y112.877 E29.92712
G1 X94.207 Y112.569 E29.93634
G1 X94.227 Y112.165 E29.94845
G1 X94.24 Y112.059 E29.95165
G1 X110.826 Y128.646 E30.65381
G1 X110.848 Y128.643 E30.65447
G1 X111.213 Y128.59 E30.66551
G1 X111.505 Y128.527 E30.67445
G1 X111.545 Y128.515 E30.6757
G1 X94.371 Y111.341 E31.40273
G1 X94.387 Y111.277 E31.40471
G1 X94.419 Y111.176 E31.40788
G1 X94.543 Y110.665 E31.42362
G1 X112.228 Y128.35 E32.17228
G1 X112.546 Y128.284 E32.18201
G1 X112.979 Y128.252 E32.195
G1 X94.641 Y109.914 E32.97131
G1 X94.65 Y109.833 E32.97375
G1 X94.661 Y109.514 E32.9833
G1 X94.695 Y109.178 E32.99341
G1 X94.703 Y109.128 E32.99493
G1 X113.764 Y128.189 E33.80184
G1 X113.88 Y128.174 E33.80534
G1 X114.175 Y128.115 E33.81435
G1 X114.461 Y128.037 E33.82322
G1 X94.853 Y108.429 E34.65329
G1 X94.874 Y108.356 E34.65557
G1 X95.056 Y107.784 E34.67354
G1 X115.103 Y127.831 E35.52219
G1 X115.227 Y127.791 E35.52609
G1 X115.479 Y127.697 E35.53414
G1 X115.703 Y127.598 E35.54147
G1 X115.713 Y127.593 E35.54181
G1 X95.293 Y107.173 E36.40625
G1 X95.351 Y107.049 E36.41035
G1 X95.498 Y106.776 E36.41963
G1 X95.592 Y106.623 E36.42501
G1 X116.265 Y127.296 E37.30016
G1 X116.27 Y127.293 E37.30034
G1 X116.551 Y127.104 E37.31047
G1 X116.787 Y126.969 E37.31861
G1 X95.921 Y106.103 E38.20194
G1 X96.054 Y105.887 E38.20953
G1 X96.209 Y105.543 E38.22082
G1 X117.344 Y126.678 E39.11554
G1 X117.773 Y126.503 E39.12941
G1 X117.869 Y126.47 E39.13245
G1 X117.951 Y126.436 E39.1351
G1 X96.455 Y104.941 E40.04508
G1 X96.467 Y104.91 E40.04607
G1 X96.592 Y104.63 E40.05525
G1 X96.729 Y104.366 E40.06415
G1 X118.526 Y126.163 E40.98689
G1 X118.686 Y126.074 E40.99237
G1 X119.01 Y125.862 E41.00396
G1 X119.046 Y125.834 E41.00533
G1 X97.057 Y103.845 E41.93619
G1 X97.327 Y103.462 E41.95022
G1 X97.411 Y103.351 E41.95439
G1 X119.534 Y125.474 E42.89093
G1 X119.597 Y125.429 E42.89324
G1 X119.793 Y125.271 E42.90078
G1 X119.964 Y125.118 E42.90765
G1 X119.996 Y125.087 E42.90898
G1 X97.797 Y102.888 E43.84874
G1 X97.853 Y102.827 E43.85122
G1 X98.092 Y102.596 E43.86117
G1 X98.234 Y102.476 E43.86673
G1 X120.41 Y124.653 E44.80553
G1 X120.626 Y124.38 E44.81595
G1 X120.797 Y124.191 E44.82358
G1 X98.698 Y102.092 E45.75911
G1 X98.913 Y101.91 E45.76754
G1 X99.127 Y101.672 E45.77712
