;FLAVOR:Marlin
;TIME:9907
;Filament used: 9.58518m
;Layer height: 0.2
;MINX:84.2
;MINY:80.2
;MINZ:0.1
;MAXX:150.8
;MAXY:128.8
;MAXZ:25.9
;Generated with Cura_SteamEngine 4.6.2
M140 S110
M105
M190 S110
M104 S240
M105
M109 S240
M82 ;absolute extrusion mode
; Ender 3 Custom Start G-code
G92 E0 ; Reset Extruder
G28 ; Home all axes
G1 Z2.0 F3000 ; Move Z Axis up little to prevent scratching of Heat Bed
G1 X0.1 Y20 Z0.3 F5000.0 ; Move to start position
G1 X0.1 Y200.0 Z0.3 F1500.0 E15 ; Draw the first line
G1 X0.4 Y200.0 Z0.3 F5000.0 ; Move to side a little
G1 X0.4 Y20 Z0.3 F1500.0 E30 ; Draw the second line
G92 E0 ; Reset Extruder
G1 Z2.0 F3000 ; Move Z Axis up little to prevent scratching of Heat Bed
G1 X5 Y20 Z0.3 F5000.0 ; Move over to prevent blob squish
G92 E0
G92 E0
;LAYER_COUNT:130
;LAYER:0
M107
G0 F9000 X100.919 Y83.126 Z0.1
;TYPE:SKIRT
G1 F1800 X101.446 Y82.537 E0.01051
G1 X102.029 Y82.005 E0.02102
G1 X102.664 Y81.535 E0.03153
G1 X103.343 Y81.132 E0.04203
G1 X103.83 Y80.895 E0.04924
G1 X104.565 Y80.606 E0.05974
G1 X105.325 Y80.393 E0.07024
G1 X106.103 Y80.258 E0.08075
G1 X107.049 Y80.2 E0.09336
G1 X127.974 Y80.2 E0.37175
G1 X128.763 Y80.24 E0.38226
G1 X129.543 Y80.359 E0.39275
G1 X130.308 Y80.557 E0.40327
G1 X131.048 Y80.831 E0.41376
G1 X131.757 Y81.179 E0.42427
G1 X132.428 Y81.597 E0.43479
G1 X133.052 Y82.08 E0.44529
G1 X133.625 Y82.623 E0.45579
G1 X134.14 Y83.222 E0.4663
G1 X134.591 Y83.87 E0.4768
G1 X134.975 Y84.561 E0.48732
G1 X135.287 Y85.286 E0.49782
G1 X135.524 Y86.039 E0.50832
G1 X135.683 Y86.813 E0.51884
G1 X135.774 Y87.977 E0.53437
G1 X135.8 Y96.977 E0.65411
G1 X135.763 Y97.746 E0.66435
G1 X135.78 Y97.961 E0.66722
G1 X135.784 Y98.754 E0.67777
G1 X148.515 Y111.485 E0.9173
G1 X149.045 Y112.071 E0.92781
G1 X149.512 Y112.707 E0.93831
G1 X149.913 Y113.387 E0.94881
G1 X150.243 Y114.105 E0.95932
G1 X150.498 Y114.852 E0.96982
G1 X150.677 Y115.621 E0.98033
G1 X150.777 Y116.405 E0.99084
G1 X150.8 Y117 E0.99877
G1 X150.8 Y121 E1.05198
G1 X150.76 Y121.789 E1.06249
G1 X150.641 Y122.569 E1.07299
G1 X150.443 Y123.334 E1.0835
G1 X150.169 Y124.074 E1.094
G1 X149.821 Y124.783 E1.10451
G1 X149.403 Y125.454 E1.11503
G1 X148.92 Y126.078 E1.12552
G1 X148.377 Y126.651 E1.13603
G1 X147.778 Y127.166 E1.14654
G1 X147.13 Y127.617 E1.15704
G1 X146.439 Y128.001 E1.16756
G1 X145.714 Y128.313 E1.17806
G1 X144.961 Y128.55 E1.18856
G1 X144.187 Y128.709 E1.19907
G1 X143.402 Y128.79 E1.20957
G1 X143 Y128.8 E1.21492
G1 X92 Y128.8 E1.89343
G1 X91.211 Y128.76 E1.90394
G1 X90.431 Y128.641 E1.91444
G1 X89.666 Y128.443 E1.92495
G1 X88.926 Y128.169 E1.93545
G1 X88.217 Y127.821 E1.94595
G1 X87.546 Y127.403 E1.95647
G1 X86.922 Y126.92 E1.96697
G1 X86.349 Y126.377 E1.97747
G1 X85.834 Y125.778 E1.98798
G1 X85.383 Y125.13 E1.99849
G1 X84.999 Y124.439 E2.009
G1 X84.687 Y123.714 E2.0195
G1 X84.45 Y122.961 E2.03001
G1 X84.291 Y122.187 E2.04052
G1 X84.21 Y121.402 E2.05102
G1 X84.2 Y121 E2.05637
G1 X84.2 Y117.008 E2.10948
G1 X84.24 Y116.219 E2.11999
G1 X84.359 Y115.439 E2.13048
G1 X84.557 Y114.674 E2.141
G1 X84.831 Y113.934 E2.1515
G1 X85.071 Y113.425 E2.15898
G1 X100.056 Y84.446 E2.59302
G1 X100.454 Y83.764 E2.60352
G1 X100.919 Y83.126 E2.61402
G0 F9000 X101.255 Y83.346
G1 F1800 X101.772 Y82.777 E2.62425
G1 X102.346 Y82.264 E2.63449
G1 X102.969 Y81.813 E2.64473
G1 X103.931 Y81.289 E2.6593
G1 X103.995 Y81.26 E2.66024
G1 X104.711 Y80.979 E2.67047
G1 X105.452 Y80.774 E2.6807
G1 X106.211 Y80.648 E2.69093
G1 X107.049 Y80.6 E2.7021
G1 X127.974 Y80.6 E2.98049
G1 X128.742 Y80.64 E2.99072
G1 X129.502 Y80.759 E3.00095
G1 X130.245 Y80.957 E3.01118
G1 X130.964 Y81.231 E3.02142
G1 X131.65 Y81.578 E3.03165
G1 X132.297 Y81.994 E3.04188
G1 X132.897 Y82.475 E3.05211
G1 X133.444 Y83.016 E3.06235
G1 X133.932 Y83.611 E3.07258
G1 X134.355 Y84.253 E3.08281
G1 X134.71 Y84.936 E3.09305
G1 X134.991 Y85.651 E3.10327
G1 X135.197 Y86.393 E3.11352
G1 X135.325 Y87.151 E3.12375
G1 X135.374 Y87.979 E3.13478
G1 X135.4 Y96.979 E3.25452
G1 X135.364 Y97.702 E3.26415
G1 X135.38 Y97.963 E3.26763
G1 X135.385 Y98.919 E3.28035
G1 X148.233 Y111.767 E3.52208
G1 X148.747 Y112.339 E3.53231
G1 X149.2 Y112.961 E3.54255
G1 X149.586 Y113.626 E3.55278
G1 X149.901 Y114.328 E3.56301
G1 X150.141 Y115.059 E3.57325
G1 X150.304 Y115.81 E3.58347
G1 X150.388 Y116.575 E3.59371
G1 X150.4 Y117 E3.59937
G1 X150.4 Y121 E3.65259
G1 X150.36 Y121.768 E3.66282
G1 X150.241 Y122.528 E3.67305
G1 X150.043 Y123.271 E3.68328
G1 X149.769 Y123.99 E3.69352
G1 X149.422 Y124.676 E3.70375
G1 X149.006 Y125.323 E3.71398
G1 X148.525 Y125.923 E3.72421
G1 X147.984 Y126.47 E3.73444
G1 X147.389 Y126.958 E3.74468
G1 X146.747 Y127.381 E3.75491
G1 X146.064 Y127.736 E3.76515
G1 X145.349 Y128.017 E3.77537
G1 X144.607 Y128.223 E3.78562
G1 X143.849 Y128.351 E3.79584
G1 X143 Y128.4 E3.80716
G1 X92 Y128.4 E4.48567
G1 X91.232 Y128.36 E4.4959
G1 X90.472 Y128.241 E4.50613
G1 X89.729 Y128.043 E4.51636
G1 X89.01 Y127.769 E4.5266
G1 X88.324 Y127.422 E4.53683
G1 X87.677 Y127.006 E4.54706
G1 X87.077 Y126.525 E4.55729
G1 X86.53 Y125.984 E4.56753
G1 X86.042 Y125.389 E4.57776
G1 X85.619 Y124.747 E4.58799
G1 X85.264 Y124.064 E4.59823
G1 X84.983 Y123.349 E4.60845
G1 X84.777 Y122.607 E4.6187
G1 X84.649 Y121.849 E4.62893
G1 X84.6 Y121 E4.64024
G1 X84.6 Y117.008 E4.69335
G1 X84.64 Y116.24 E4.70358
G1 X84.759 Y115.48 E4.71381
G1 X84.957 Y114.737 E4.72404
G1 X85.231 Y114.018 E4.73428
G1 X85.427 Y113.609 E4.74032
G1 X100.412 Y84.63 E5.17435
G1 X100.8 Y83.966 E5.18458
G1 X101.255 Y83.346 E5.19481
G0 F9000 X101.591 Y83.567
G1 F1800 X102.098 Y83.017 E5.20476
G1 X102.661 Y82.524 E5.21472
G1 X103.273 Y82.094 E5.22467
G1 X104.16 Y81.624 E5.23802
G1 X104.857 Y81.352 E5.24798
G1 X105.579 Y81.156 E5.25793
G1 X106.317 Y81.038 E5.26787
G1 X107.049 Y81 E5.27763
G1 X127.974 Y81 E5.55601
G1 X128.721 Y81.04 E5.56597
G1 X129.459 Y81.159 E5.57591
G1 X130.181 Y81.357 E5.58587
G1 X130.877 Y81.63 E5.59582
G1 X131.54 Y81.977 E5.60577
G1 X132.163 Y82.392 E5.61573
G1 X132.737 Y82.871 E5.62568
G1 X133.258 Y83.408 E5.63563
G1 X133.717 Y83.998 E5.64558
G1 X134.112 Y84.634 E5.65554
G1 X134.436 Y85.308 E5.66549
G1 X134.686 Y86.013 E5.67544
G1 X134.86 Y86.741 E5.6854
G1 X134.955 Y87.483 E5.69535
G1 X134.974 Y87.98 E5.70197
G1 X135 Y96.98 E5.8217
G1 X134.967 Y97.632 E5.83039
G1 X134.98 Y97.965 E5.83482
G1 X134.986 Y99.086 E5.84974
G1 X147.95 Y112.05 E6.09365
G1 X148.45 Y112.607 E6.10361
G1 X148.887 Y113.213 E6.11355
G1 X149.258 Y113.863 E6.12351
G1 X149.557 Y114.549 E6.13346
G1 X149.781 Y115.263 E6.14342
G1 X149.928 Y115.996 E6.15336
G1 X150 Y117 E6.16676
G1 X150 Y121 E6.21997
G1 X149.96 Y121.747 E6.22992
G1 X149.841 Y122.485 E6.23987
G1 X149.643 Y123.207 E6.24983
G1 X149.37 Y123.903 E6.25978
G1 X149.023 Y124.566 E6.26973
G1 X148.608 Y125.189 E6.27969
G1 X148.129 Y125.763 E6.28964
G1 X147.592 Y126.284 E6.29959
G1 X147.002 Y126.743 E6.30954
G1 X146.366 Y127.138 E6.3195
G1 X145.692 Y127.462 E6.32945
G1 X144.987 Y127.712 E6.3394
G1 X144.259 Y127.886 E6.34936
G1 X143.517 Y127.981 E6.35931
G1 X143 Y128 E6.36619
G1 X92 Y128 E7.0447
G1 X91.253 Y127.96 E7.05465
G1 X90.515 Y127.841 E7.06459
G1 X89.793 Y127.643 E7.07455
G1 X89.097 Y127.37 E7.0845
G1 X88.434 Y127.023 E7.09446
G1 X87.811 Y126.608 E7.10442
G1 X87.237 Y126.129 E7.11436
G1 X86.716 Y125.592 E7.12432
G1 X86.257 Y125.002 E7.13426
G1 X85.862 Y124.366 E7.14422
G1 X85.538 Y123.692 E7.15417
G1 X85.288 Y122.987 E7.16412
G1 X85.114 Y122.259 E7.17408
G1 X85.019 Y121.517 E7.18403
G1 X85 Y121 E7.19092
G1 X85 Y117.008 E7.24403
G1 X85.04 Y116.261 E7.25398
G1 X85.159 Y115.523 E7.26392
G1 X85.357 Y114.801 E7.27388
G1 X85.782 Y113.793 E7.28844
G1 X100.767 Y84.814 E7.72247
G1 X101.146 Y84.169 E7.73242
G1 X101.591 Y83.567 E7.74238
G0 F9000 X101.926 Y83.79
G1 F1800 X102.423 Y83.26 E7.75205
G1 X102.974 Y82.787 E7.76171
G1 X103.575 Y82.378 E7.77138
G1 X104.325 Y81.988 E7.78263
G1 X105.002 Y81.725 E7.79229
G1 X105.704 Y81.539 E7.80195
G1 X106.422 Y81.43 E7.81161
G1 X107.049 Y81.4 E7.81997
G1 X127.974 Y81.4 E8.09835
G1 X128.699 Y81.44 E8.10801
G1 X129.416 Y81.559 E8.11768
G1 X130.115 Y81.757 E8.12735
G1 X130.788 Y82.03 E8.13701
G1 X131.427 Y82.375 E8.14667
G1 X132.024 Y82.789 E8.15634
G1 X132.572 Y83.265 E8.16599
G1 X133.065 Y83.799 E8.17566
G1 X133.495 Y84.384 E8.18532
G1 X133.859 Y85.013 E8.19499
G1 X134.152 Y85.678 E8.20466
G1 X134.37 Y86.371 E8.21432
G1 X134.51 Y87.083 E8.22398
G1 X134.574 Y87.981 E8.23595
G1 X134.6 Y96.981 E8.35569
G1 X134.562 Y97.706 E8.36535
G1 X134.58 Y97.967 E8.36883
G1 X134.586 Y99.252 E8.38593
G1 X147.667 Y112.333 E8.63204
G1 X148.151 Y112.874 E8.6417
G1 X148.574 Y113.465 E8.65137
G1 X148.928 Y114.099 E8.66103
G1 X149.211 Y114.768 E8.67069
G1 X149.419 Y115.464 E8.68036
G1 X149.549 Y116.179 E8.69003
G1 X149.6 Y117 E8.70097
G1 X149.6 Y121 E8.75419
G1 X149.56 Y121.725 E8.76385
G1 X149.441 Y122.442 E8.77352
G1 X149.243 Y123.141 E8.78318
G1 X148.97 Y123.814 E8.79284
G1 X148.625 Y124.453 E8.8025
G1 X148.211 Y125.05 E8.81217
G1 X147.735 Y125.598 E8.82183
G1 X147.201 Y126.091 E8.8315
G1 X146.616 Y126.521 E8.84116
G1 X145.987 Y126.885 E8.85082
G1 X145.322 Y127.178 E8.86049
G1 X144.629 Y127.396 E8.87016
G1 X143.917 Y127.536 E8.87981
G1 X143 Y127.6 E8.89204
G1 X92 Y127.6 E9.57055
G1 X91.275 Y127.56 E9.58021
G1 X90.558 Y127.441 E9.58988
G1 X89.859 Y127.243 E9.59954
G1 X89.186 Y126.97 E9.6092
G1 X88.547 Y126.625 E9.61887
G1 X87.95 Y126.211 E9.62853
G1 X87.402 Y125.735 E9.63819
G1 X86.909 Y125.201 E9.64786
G1 X86.479 Y124.616 E9.65752
G1 X86.115 Y123.987 E9.66718
G1 X85.822 Y123.322 E9.67685
G1 X85.604 Y122.629 E9.68652
G1 X85.464 Y121.917 E9.69617
G1 X85.4 Y121 E9.7084
G1 X85.4 Y117.008 E9.76151
G1 X85.44 Y116.283 E9.77117
G1 X85.559 Y115.566 E9.78084
G1 X85.757 Y114.867 E9.79051
G1 X86.137 Y113.976 E9.80339
G1 X101.122 Y84.997 E10.23743
G1 X101.491 Y84.372 E10.24708
G1 X101.926 Y83.79 E10.25675
G0 F9000 X102.261 Y84.014
G1 F1800 X102.746 Y83.504 E10.26611
G1 X103.287 Y83.053 E10.27548
G1 X103.875 Y82.666 E10.28485
G1 X104.49 Y82.353 E10.29403
G1 X105.147 Y82.099 E10.3034
G1 X105.828 Y81.921 E10.31276
G1 X106.525 Y81.822 E10.32213
G1 X107.049 Y81.8 E10.32911
G1 X127.974 Y81.8 E10.60749
G1 X128.677 Y81.84 E10.61686
G1 X129.371 Y81.959 E10.62623
G1 X130.046 Y82.157 E10.63559
G1 X130.695 Y82.429 E10.64495
G1 X131.309 Y82.774 E10.65432
G1 X131.88 Y83.185 E10.66368
G1 X132.401 Y83.659 E10.67305
G1 X132.865 Y84.189 E10.68242
G1 X133.265 Y84.768 E10.69179
G1 X133.597 Y85.389 E10.70115
G1 X133.857 Y86.043 E10.71052
G1 X134.041 Y86.723 E10.71989
G1 X134.147 Y87.419 E10.72926
G1 X134.174 Y87.982 E10.73675
G1 X134.2 Y96.982 E10.85649
G1 X134.164 Y97.646 E10.86534
G1 X134.18 Y97.969 E10.86964
G1 X134.187 Y99.419 E10.88893
G1 X147.384 Y112.616 E11.13723
G1 X147.853 Y113.141 E11.1466
G1 X148.259 Y113.716 E11.15596
G1 X148.597 Y114.334 E11.16533
G1 X148.864 Y114.985 E11.17469
G1 X149.054 Y115.663 E11.18406
G1 X149.167 Y116.358 E11.19343
G1 X149.2 Y117 E11.20198
G1 X149.2 Y121 E11.2552
G1 X149.16 Y121.703 E11.26456
G1 X149.041 Y122.397 E11.27393
G1 X148.843 Y123.072 E11.28329
G1 X148.571 Y123.721 E11.29265
G1 X148.226 Y124.335 E11.30202
G1 X147.815 Y124.906 E11.31138
G1 X147.341 Y125.427 E11.32075
G1 X146.811 Y125.891 E11.33013
G1 X146.232 Y126.291 E11.33949
G1 X145.611 Y126.623 E11.34886
G1 X144.957 Y126.883 E11.35822
G1 X144.277 Y127.067 E11.36759
G1 X143.581 Y127.173 E11.37696
G1 X143 Y127.2 E11.3847
G1 X92 Y127.2 E12.0632
G1 X91.297 Y127.16 E12.07257
G1 X90.603 Y127.041 E12.08194
G1 X89.928 Y126.843 E12.0913
G1 X89.279 Y126.571 E12.10066
G1 X88.665 Y126.226 E12.11003
G1 X88.094 Y125.815 E12.11939
G1 X87.573 Y125.341 E12.12876
G1 X87.109 Y124.811 E12.13813
G1 X86.709 Y124.232 E12.14749
G1 X86.377 Y123.611 E12.15686
G1 X86.117 Y122.957 E12.16623
G1 X85.933 Y122.277 E12.1756
G1 X85.827 Y121.581 E12.18496
G1 X85.8 Y121 E12.1927
G1 X85.8 Y117.008 E12.24581
G1 X85.84 Y116.305 E12.25518
G1 X85.959 Y115.611 E12.26455
G1 X86.157 Y114.936 E12.27391
G1 X86.493 Y114.16 E12.28516
G1 X101.478 Y85.181 E12.71919
G1 X101.836 Y84.575 E12.72855
G1 X102.261 Y84.014 E12.73792
G0 F9000 X102.595 Y84.239
G1 F1800 X103.069 Y83.751 E12.74697
G1 X103.597 Y83.321 E12.75603
G1 X104.173 Y82.957 E12.76509
G1 X104.655 Y82.717 E12.77226
G1 X105.291 Y82.473 E12.78132
G1 X105.951 Y82.305 E12.79038
G1 X106.626 Y82.215 E12.79944
G1 X107.049 Y82.2 E12.80507
G1 X127.974 Y82.2 E13.08346
G1 X128.654 Y82.24 E13.09252
G1 X129.324 Y82.359 E13.10157
G1 X129.976 Y82.556 E13.11063
G1 X130.6 Y82.828 E13.11969
G1 X131.188 Y83.172 E13.12875
G1 X131.732 Y83.582 E13.13782
G1 X132.223 Y84.053 E13.14687
G1 X132.657 Y84.578 E13.15593
G1 X133.026 Y85.15 E13.16499
G1 X133.325 Y85.762 E13.17405
G1 X133.55 Y86.404 E13.1831
G1 X133.699 Y87.069 E13.19216
G1 X133.774 Y87.983 E13.20437
G1 X133.8 Y96.983 E13.3241
G1 X133.762 Y97.663 E13.33316
G1 X133.78 Y97.971 E13.33727
G1 X133.788 Y99.586 E13.35875
G1 X147.101 Y112.899 E13.60924
G1 X147.554 Y113.408 E13.6183
G1 X147.943 Y113.966 E13.62735
G1 X148.265 Y114.566 E13.63641
G1 X148.514 Y115.2 E13.64547
G1 X148.687 Y115.859 E13.65454
G1 X148.781 Y116.533 E13.66359
G1 X148.8 Y117 E13.66981
G1 X148.8 Y121 E13.72302
G1 X148.76 Y121.68 E13.73209
G1 X148.641 Y122.35 E13.74114
G1 X148.444 Y123.002 E13.7502
G1 X148.172 Y123.626 E13.75926
G1 X147.828 Y124.214 E13.76832
G1 X147.418 Y124.758 E13.77738
G1 X146.947 Y125.249 E13.78644
G1 X146.422 Y125.683 E13.7955
G1 X145.85 Y126.052 E13.80455
G1 X145.238 Y126.351 E13.81362
G1 X144.596 Y126.576 E13.82267
G1 X143.931 Y126.725 E13.83173
G1 X143 Y126.8 E13.84416
G1 X92 Y126.8 E14.52267
G1 X91.32 Y126.76 E14.53173
G1 X90.65 Y126.641 E14.54078
G1 X89.998 Y126.444 E14.54984
G1 X89.374 Y126.172 E14.5589
G1 X88.786 Y125.828 E14.56796
G1 X88.242 Y125.418 E14.57702
G1 X87.751 Y124.947 E14.58608
G1 X87.317 Y124.422 E14.59514
G1 X86.948 Y123.85 E14.60419
G1 X86.649 Y123.238 E14.61326
G1 X86.424 Y122.596 E14.62231
G1 X86.275 Y121.931 E14.63137
G1 X86.2 Y121 E14.6438
G1 X86.2 Y117.008 E14.69691
G1 X86.24 Y116.328 E14.70597
G1 X86.359 Y115.658 E14.71503
G1 X86.556 Y115.006 E14.72409
G1 X86.848 Y114.344 E14.73371
G1 X101.833 Y85.365 E15.16775
G1 X102.181 Y84.78 E15.1768
G1 X102.595 Y84.239 E15.18586
G0 F9000 X102.928 Y84.465
G1 F1800 X103.391 Y83.999 E15.1946
G1 X103.906 Y83.592 E15.20334
G1 X104.756 Y83.11 E15.21634
G1 X104.82 Y83.081 E15.21727
G1 X105.434 Y82.847 E15.22601
G1 X106.072 Y82.689 E15.23476
G1 X107.049 Y82.6 E15.24781
G1 X127.974 Y82.6 E15.5262
G1 X128.63 Y82.64 E15.53494
G1 X129.276 Y82.759 E15.54368
G1 X129.903 Y82.956 E15.55242
G1 X130.501 Y83.228 E15.56116
G1 X131.062 Y83.57 E15.56991
G1 X131.577 Y83.978 E15.57865
G1 X132.039 Y84.445 E15.58739
G1 X132.44 Y84.965 E15.59612
G1 X132.776 Y85.529 E15.60486
G1 X133.04 Y86.131 E15.6136
G1 X133.23 Y86.76 E15.62234
G1 X133.341 Y87.407 E15.63108
G1 X133.374 Y87.984 E15.63877
G1 X133.4 Y96.984 E15.7585
G1 X133.362 Y97.64 E15.76724
G1 X133.38 Y97.973 E15.77168
G1 X133.389 Y99.753 E15.79536
G1 X146.818 Y113.182 E16.04803
G1 X147.254 Y113.674 E16.05677
G1 X147.626 Y114.215 E16.06551
G1 X147.93 Y114.797 E16.07424
G1 X148.161 Y115.412 E16.08298
G1 X148.316 Y116.051 E16.09173
G1 X148.4 Y117 E16.10441
G1 X148.4 Y121 E16.15762
G1 X148.36 Y121.656 E16.16637
G1 X148.241 Y122.302 E16.1751
G1 X148.044 Y122.929 E16.18385
G1 X147.772 Y123.527 E16.19259
G1 X147.43 Y124.088 E16.20133
G1 X147.022 Y124.603 E16.21007
G1 X146.555 Y125.065 E16.21881
G1 X146.035 Y125.466 E16.22755
G1 X145.471 Y125.802 E16.23628
G1 X144.869 Y126.066 E16.24503
G1 X144.24 Y126.256 E16.25377
G1 X143.593 Y126.367 E16.2625
G1 X143 Y126.4 E16.2704
G1 X92 Y126.4 E16.94891
G1 X91.344 Y126.36 E16.95765
G1 X90.698 Y126.241 E16.96639
G1 X90.071 Y126.044 E16.97514
G1 X89.473 Y125.772 E16.98388
G1 X88.912 Y125.43 E16.99262
G1 X88.397 Y125.022 E17.00136
G1 X87.935 Y124.555 E17.0101
G1 X87.534 Y124.035 E17.01883
G1 X87.198 Y123.471 E17.02757
G1 X86.934 Y122.869 E17.03631
G1 X86.744 Y122.24 E17.04506
G1 X86.633 Y121.593 E17.05379
G1 X86.6 Y121 E17.06169
G1 X86.6 Y117.008 E17.1148
G1 X86.64 Y116.352 E17.12354
G1 X86.759 Y115.706 E17.13228
G1 X86.956 Y115.079 E17.14103
G1 X87.203 Y114.528 E17.14906
G1 X102.188 Y85.549 E17.58309
